src/svg/document-archive-24-line.svg

<svg width="16" height="16" viewBox="0 0 16 16" fill="none" xmlns="http://www.w3.org/2000/svg">
<path d="M3.23306 10.07C3.61024 10.07 3.87823 10.41 3.71942 10.81L2.20078 13.97H3.32239C3.68964 13.97 3.84845 14.23 3.84845 14.44C3.84845 14.65 3.69957 14.92 3.32239 14.92H1.54568C1.1685 14.92 0.880654 14.6 1.04939 14.21L2.57796 11.02H1.52583C1.1685 11.02 1.00969 10.76 1.00969 10.54C1.00969 10.32 1.15858 10.07 1.52583 10.07H3.24298H3.23306Z" fill="black"/>
<path d="M5.58546 14.49C5.58546 14.73 5.43658 15 5.07925 15C4.72192 15 4.57303 14.73 4.57303 14.49V10.52C4.57303 10.28 4.73185 10.01 5.07925 10.01C5.42665 10.01 5.58546 10.28 5.58546 10.52V14.49Z" fill="black"/>
<path d="M7.66987 14.49C7.66987 14.73 7.52098 15 7.16366 15C6.80633 15 6.65744 14.73 6.65744 14.49V10.55C6.65744 10.33 6.81625 10.08 7.18351 10.08H7.86838C8.80141 10.08 9.46643 10.7 9.46643 11.53C9.46643 12.437 8.74477 13.04 7.86838 13.04H7.65002L7.66987 14.49ZM7.87831 12.08C8.17608 12.08 8.47386 11.92 8.47386 11.57V11.53C8.47386 11.18 8.17608 11.02 7.87831 11.02H7.65994V12.08H7.87831Z" fill="black"/>
<path d="M12.5533 4.35L9.66495 1.44C9.38703 1.16 9.00985 1 8.61282 1H5.04947C3.95764 1 3.06432 1.9 3.06432 3V9.07H3.23306C3.53083 9.07 3.80875 9.16 4.0569 9.31V3C4.0569 2.45 4.50355 2 5.04947 2H8.0272V4.5C8.0272 5.33 8.69222 6 9.51606 6H11.9975V13C11.9975 13.55 11.5508 14 11.0049 14H8.66245V14.49C8.66245 14.67 8.62274 14.84 8.57311 15H11.0148C12.1067 15 13 14.1 13 13V5.41C13 5.01 12.8412 4.63 12.5633 4.35H12.5533ZM9.51606 5C9.23814 5 9.01977 4.78 9.01977 4.5V2.21L11.7891 5H9.51606Z" fill="black"/>
</svg>

<?xml version="1.0" encoding="UTF-8"?>
<svg id="Layer_1" data-name="Layer 1" xmlns="http://www.w3.org/2000/svg" viewBox="0 0 16 16">
  <defs>
    <style>
      .cls-1 {
        fill: none;
      }
    </style>
  </defs>
  <path d="M3.17,10.07c.38,0,.65.34.49.74l-1.53,3.16h1.13c.37,0,.53.26.53.47s-.15.48-.53.48h-1.79c-.38,0-.67-.32-.5-.71l1.54-3.19h-1.06c-.36,0-.52-.26-.52-.48s.15-.47.52-.47h1.73Z"/>
  <path d="M5.54,14.49c0,.24-.15.51-.51.51s-.51-.27-.51-.51v-3.97c0-.24.16-.51.51-.51s.51.27.51.51v3.97Z"/>
  <path d="M7.64,14.49c0,.24-.15.51-.51.51s-.51-.27-.51-.51v-3.94c0-.22.16-.47.53-.47h.69c.94,0,1.61.62,1.61,1.45v.05c0,.84-.67,1.46-1.61,1.46h-.22v1.45ZM7.85,12.08c.3,0,.6-.16.6-.51v-.04c0-.35-.3-.51-.6-.51h-.22v1.06h.22Z"/>
  <g>
    <path class="cls-1" d="M9,4.5c0,.28.22.5.5.5h2.29l-2.79-2.79v2.29Z"/>
    <path d="M12.56,4.35l-2.91-2.91c-.28-.28-.66-.44-1.06-.44h-3.59c-1.1,0-2,.9-2,2v6.07h.17c.3,0,.58.09.83.24V3c0-.55.45-1,1-1h3v2.5c0,.83.67,1.5,1.5,1.5h2.5v7c0,.55-.45,1-1,1h-2.36v.49c0,.18-.04.35-.09.51h2.46c1.1,0,2-.9,2-2v-7.59c0-.4-.16-.78-.44-1.06ZM9.5,5c-.28,0-.5-.22-.5-.5v-2.29l2.79,2.79h-2.29Z"/>
  </g>
</svg>
